build/logo/MongoSolid.svg

<svg xmlns="http://www.w3.org/2000/svg" fill="none" viewBox="0 0 24 24" focusable="false"><path d="M0 0H24V24H0z"/><path fill="#74767B" fill-rule="evenodd" d="M12.9106 3.8999L6.90039 3.8999C5.24365 3.8999 3.90039 5.24316 3.90039 6.8999L3.90039 11.3086L10.8809 11.3088C10.9751 8.59912 12.3057 6.5481 13.4609 5.04468C13.8198 4.57788 13.4995 3.8999 12.9106 3.8999ZM15.8223 18.7961C14.3438 17.624 12.2148 15.1057 12.2148 11.6716C12.2148 8.47754 13.8516 6.44092 15.1421 4.83496C15.2954 4.6438 15.4443 4.4585 15.585 4.27832C15.9541 3.80493 16.8901 3.81543 17.2559 4.29175C17.394 4.47192 17.542 4.65771 17.6953 4.85034C17.8574 5.05347 18.0913 5.34668 18.2612 5.56543C19.4497 7.09546 20.7271 9.0271 20.7271 11.6716C20.7271 14.9812 18.6333 17.5005 17.1226 18.7278L17.1226 19.8726C17.1226 20.2314 16.8315 20.5225 16.4727 20.5225C16.1133 20.5225 15.8223 20.2314 15.8223 19.8726L15.8223 18.7961ZM16.4727 9.66284C16.8315 9.66284 17.1226 9.95386 17.1226 10.313L17.1226 16.2397C17.1226 16.5986 16.8315 16.8896 16.4727 16.8896C16.1133 16.8896 15.8223 16.5986 15.8223 16.2397L15.8223 10.313C15.8223 9.95386 16.1133 9.66284 16.4727 9.66284ZM3.90039 17.0999L3.90039 12.6086L10.8809 12.6086C11.1318 15.1816 12.4707 17.25 13.73 18.6511C14.1831 19.155 13.8408 20.0999 13.1631 20.0999L6.90039 20.0999C5.24365 20.0999 3.90039 18.7566 3.90039 17.0999Z"/></svg>

<svg xmlns="http://www.w3.org/2000/svg" fill="none" viewBox="0 0 24 24" focusable="false"><path fill="#74767B" fill-rule="evenodd" d="M12.91 3.89H6.9c-1.66 0-3 1.35-3 3v4.41h6.98c.09-2.71 1.42-4.76 2.58-6.26.35-.47.03-1.15-.55-1.15m2.91 14.9c-1.48-1.17-3.61-3.69-3.61-7.12 0-3.2 1.64-5.23 2.93-6.84.15-.19.3-.38.44-.56.37-.47 1.31-.46 1.67.02.14.18.29.36.44.56.16.2.4.49.57.71 1.18 1.53 2.46 3.46 2.46 6.11 0 3.31-2.09 5.83-3.6 7.05v1.15c0 .36-.29.65-.65.65s-.65-.29-.65-.65zm.65-9.13c.36 0 .65.29.65.65v5.92c0 .36-.29.65-.65.65s-.65-.29-.65-.65v-5.92c0-.36.29-.65.65-.65M3.9 17.09V12.6h6.98c.25 2.58 1.59 4.65 2.85 6.05.45.5.11 1.44-.57 1.44H6.9c-1.66 0-3-1.34-3-3"/></svg>
